X:1
T:Drops Of Brandy
L:1/8
Q:1/4=180
M:9/8
K:Gmaj
|:"G" [GB]3 z3 z3 |"G" [GB]2 z z3"D7" [Ad] z z |"G" [GB]3 z3 z3 |"C" [ce]2 z"D7" [df]3 z3 ::
"G" G3 z3 z3 |"G"[GB]2 z z3"D7" [Ad] z z |1
"G"[GB]2 z z3 z3 |"C" [ce]2 z"D7" [df]3 z3 :|2"G" [GB]2 z z3 z3 |"C" [ce]2 z"D7" [df]3 z3 |

